X: 32639
T: Plectrum Pixie, The
R: jig
M: 6/8
K: Gmajor
BAG GED|~E3 c2A|Bdd GAB|AcG FED|
BAG GED|~E3 c2A|BdB GAB|1 AGG G2A:|2 AGF GBc||
ded GBd|gag gfe|ded GAB|cEG FED|
ded GBd|~g3 gfe|ded GAB|1 cAF GBc:|2 AGG G3||

